X:1006
T:Vals efter Lasse i Lyby 
T:(SvL Skåne nr. 1370)
C:Lasse Lyby
R:Vals
Z:Patrik Månsson, 2009-01-13
O:Lyby, Skåne
S:Svenska Låtar Skåne
B:Svenska Låtar Skåne
M:3/4
L:1/8
K:D
|:D(F A)(d c)B|(BA) AA A2|A(c e)(g f)e|f2 d2 A2|D(F A)(d c)B|
(BA) AA A2|A(c e)(g f)e|d2z2 z2::f2 (fe) d(c|B2) B(^A B2)|
g2 ge cA|d2 fd A2|f2 f(e d)(c|B2) B(^A B2)|gecABc|d2 z2 z2:|

(:musicend:)

(:music:)
